X:1
T:Title
%%score { ( 1 3 ) | 2 }
L:1/8
Q:1/4=120
M:6/4
K:Ab
V:1 treble nm="Grand Piano"
V:3 treble 
V:2 bass 
V:1
 [FA]2 [=EG]2 [FA]2 [GB]2 [FA]2 F2 | D2 D2 E2 F6 | [E_G]2 [=DF]2 [EG]2 [Gc]4 [GB]2 | [=EB]6 [FA]6 | %4
w: J.~Lincoln~Hall * * * * *||||
 [FA]2 [=EG]2 [FA]2 [GB]2 [FA]2 F2 | D2 D2 E2 F6 | E2 F2 G2 [Gd]4 [Gc]2 | [DGB]6 [A,CEA]6 | %8
w: ||||
 [A,DF]2 [A,E_G]2 [A,=E=G]2 [DFA]4 [DFd]2 | [_Gd]6 z6 | _G2 F2 G2 c4 B2 | [=EB]6 z6 | %12
w: ||||
 [DF]2 [CE_G]2 [B,=E=G]2 [A,FA]4 [Af]2 | e2 d2 c2 B6 | B2 c2 d2 A4 d2 | e6 [Fd]6 |] %16
w: ||||
V:2
 [D,D]2 [D,D]2 [D,D]2 [D,D]2 [D,D]2 [D,A,D]2 | [F,A,]2 [F,A,]2 [E,A,C]2 [D,A,D]6 | %2
 [A,,A,]2 [A,,A,]2 [A,,A,]2 [A,,A,]4 [C,A,]2 | [D,G,]6 [D,A,]6 | %4
 [D,D]2 [D,D]2 [D,D]2 [D,D]2 [D,D]2 [D,A,D]2 | [F,A,]2 [F,A,]2 [E,A,C]2 [D,A,D]6 | %6
 [E,G,D]2 [E,A,D]2 [E,B,D]2 [E,E]4 [E,E]2 | E,6 A,,6 | D,2 D,2 D,2 D,4 D,2 | %9
 A,2 A,2 A,2[K:treble] [A,E_G]6 | [A,CE]2 [A,_C=D]2 [A,=CE]2 [A,E_G]4 [A,CG]2 | %11
 [D,D]2 D,2 D,2 D,6 | D,2 D,2 D,2 D,4 [D,_C]2 | [_G,B,_G]2 [G,B,G]2 [G,CG]2 [G,DG]6 | %14
 [G,D=E]2 [G,CE]2 [G,B,E]2 [A,DF]4 [A,DF]2 | [A,C_G]6[K:bass] [D,A,D]6 |] %16
V:3
 x12 | x12 | x12 | x12 | x12 | x12 | x12 | x12 | x12 | E2 E2 E2 c6 | x12 | z2 D2 D2 [DFA]6 | x12 | %13
 x12 | x12 | x12 |] %16

